X: 26518
T: Michael Russell's
R: slide
M: 12/8
K: Dmajor
B2|"D"A2 A A2 A ABA F2 E|"Em"DFA B2 A "G"B2 A "A"F2 A|
"D"dcd a2 g f2 d B2 A|"G"BcA "A"BAB "D"d3 d2:|
A|"D"dcd a2 g "Bm"f2 d B2 A|"Em"BcA BcA "A"B2 A F2 A|
"D"dcd a2 g "Bm"f2 d B2 A|"G"BcA "A"BAB "D"d3 d:|

